X:157
T:Lads Of Saltcots. Ru2.157
%%VWML:RutherfordVol2-2249-p79-0
F:http://www.vwml.org/record/RutherfordVol2/2249/p79
Z:vmp.Steve Mansfield 2015 www.village-music-project.org.uk
M:C|
L:1/8
W:The first Cu. Hey with the 2d Man .| Then
W:with the 2d Wo. :| Gallop down the middle
W:up again & cast off .|. Right & Left at Top :|
Q:1/2=60
K:A
|:A3c BABc | AFEF B/B/B B2 | A3c BABc | AFEF A/A/A A2 :|
|: (ef/g/ a)c TBA(Bc) | (ef/g/ a)c B/B/B B2 | (ef/g/ a)c TBA(Bc) | AFEF A/A/A A2 :|
T:Fair And Lucky. Ru2.158
B:RUTHERFORD Complete Collection of 200 Country Dances Vol.2; 1759.
Z:vmp.Steve Mansfield 2015 www.village-music-project.org.uk
M:6/8
L:1/8
W:The first turns the 2d Wo. .| The first Wo. turns
W:the 2d Man :| Cross over one Cu. .|. Right
W:Hand & Left :|
Q:3/8=90
K:G
|:B>AG D2D | =F2F ABc | B>AG D2D | G2G Bcd :|
|: TB2G Bcd | TA2F ABc | Bcd efg | fed efg :|
